src/components/UserConsent/assets/error-circle.svg

<svg width="40" height="40" fill="none" xmlns="http://www.w3.org/2000/svg">
  <path fill-rule="evenodd" clip-rule="evenodd" d="M19.906 0C8.93 0 0 8.972 0 20s8.972 20 20 20 20-8.972 20-20S30.986 0 19.906 0zM20 36c-8.822 0-16-7.178-16-16S11.134 4 19.906 4C28.782 4 36 11.178 36 20s-7.178 16-16 16zm-2-26h4v12h-4V10zm0 16h4v4h-4v-4z" fill="#BDC3FF"/>
</svg>

<svg width="40" height="40" viewBox="0 0 40 40" fill="none" xmlns="http://www.w3.org/2000/svg">
<path fill-rule="evenodd" clip-rule="evenodd" d="M19.906 0C8.93 0 0 8.972 0 20C0 31.028 8.972 40 20 40C31.028 40 40 31.028 40 20C40 8.972 30.986 0 19.906 0ZM20 36C11.178 36 4 28.822 4 20C4 11.178 11.134 4 19.906 4C28.782 4 36 11.178 36 20C36 28.822 28.822 36 20 36ZM18 10H22V22H18V10ZM18 26H22V30H18V26Z" fill="#BDC3FF"/>
</svg>
